plugins/VultModulesFree/res/ButtonA_OFF.svg

<?xml version="1.0" encoding="UTF-8" standalone="no"?>
<!DOCTYPE svg PUBLIC "-//W3C//DTD SVG 1.1//EN" "http://www.w3.org/Graphics/SVG/1.1/DTD/svg11.dtd">
<svg width="17" height="16" viewBox="0 0 17 16" version="1.1" 
   xmlns="http://www.w3.org/2000/svg" 
   xmlns:xlink="http://www.w3.org/1999/xlink" xml:space="preserve" style="fill-rule:evenodd;clip-rule:evenodd;stroke-linecap:round;stroke-linejoin:round;stroke-miterlimit:1.5;">
   <g transform="matrix(1,0,0,1,-76.3043,-301.143)">
      <g transform="matrix(1,0,0,1,-0.0233391,8.20073)">
         <g transform="matrix(1.03804,0,0,1.04192,-3.4632,-29.2585)">
            <path d="M92.788,312.7c0,-1.536 -1.251,-2.782 -2.792,-2.782l-9.881,0c-1.541,0 -2.793,1.246 -2.793,2.782l0,8.433c0,1.536 1.252,2.783 2.793,2.783l9.881,0c1.541,0 2.792,-1.247 2.792,-2.783l0,-8.433Z" style="stroke:rgb(38,38,38);stroke-width:0.96px;"/>
         </g>
         <g transform="matrix(1.02667,0,0,1.13251,-2.85617,-57.5662)">
            <path d="M92.322,313.746c0,-1.541 -1.381,-2.792 -3.081,-2.792l-7.626,0c-1.7,0 -3.08,1.251 -3.08,2.792l0,5.586c0,1.541 1.38,2.792 3.08,2.792l7.626,0c1.7,0 3.081,-1.251 3.081,-2.792l0,-5.586Z" style="fill:rgb(38,38,38);stroke:rgb(102,102,102);stroke-width:0.79px;"/>
         </g>
         <g transform="matrix(0.925979,0,0,0.991131,5.74596,-12.8123)">
            <path d="M92.322,313.042c0,-1.153 -1.002,-2.088 -2.236,-2.088l-9.316,0c-1.234,0 -2.235,0.935 -2.235,2.088l0,6.994c0,1.153 1.001,2.088 2.235,2.088l9.316,0c1.234,0 2.236,-0.935 2.236,-2.088l0,-6.994Z" style="fill:rgb(26,26,26);stroke:rgb(51,51,51);stroke-width:0.89px;"/>
         </g>
      </g>
      <g transform="matrix(4.00166,0,0,4.00166,81.9973,311.782)">
         <g id="text9293.-4">
            <path d="M0.855,-0.49l-0.154,-0.439l-0.153,0.439l0.307,0Zm0.091,0.261l-0.489,0l-0.079,0.229l-0.366,0l0.502,-1.319l0.375,0l0.502,1.319l-0.366,0l-0.079,-0.229Z" style="fill:rgb(204,204,204);fill-rule:nonzero;"/>
         </g>
      </g>
   </g>
</svg>

<svg xmlns:dc="http://purl.org/dc/elements/1.1/" xmlns:cc="http://creativecommons.org/ns#" xmlns:rdf="http://www.w3.org/1999/02/22-rdf-syntax-ns#" xmlns:svg="http://www.w3.org/2000/svg" xmlns="http://www.w3.org/2000/svg" xmlns:xlink="http://www.w3.org/1999/xlink" xmlns:sodipodi="http://sodipodi.sourceforge.net/DTD/sodipodi-0.dtd" xmlns:inkscape="http://www.inkscape.org/namespaces/inkscape" width="17" height="16" viewBox="0 0 17 16" version="1.1" xml:space="preserve" style="fill-rule:evenodd;clip-rule:evenodd;stroke-linecap:round;stroke-linejoin:round;stroke-miterlimit:1.5;" id="svg19957" sodipodi:docname="ButtonA_OFF.svg" inkscape:version="0.92.3 (2405546, 2018-03-11)">
  <defs id="defs19961">
    <linearGradient inkscape:collect="always" id="linearGradient20530">
      <stop style="stop-color:#000000;stop-opacity:1;" offset="0" id="stop20526"/>
      <stop style="stop-color:#dcdcdc;stop-opacity:0.99532712" offset="1" id="stop20528"/>
    </linearGradient>
    <linearGradient inkscape:collect="always" xlink:href="#linearGradient20530" id="linearGradient20532" x1="92.833633" y1="323.97696" x2="92.739021" y2="309.93835" gradientUnits="userSpaceOnUse"/>
  </defs>
  <metadata id="metadata19963">
    <rdf:RDF>
      <cc:Work rdf:about="">
        <dc:format>image/svg+xml</dc:format>
        <dc:type rdf:resource="http://purl.org/dc/dcmitype/StillImage"/>
      </cc:Work>
    </rdf:RDF>
  </metadata>
  <sodipodi:namedview pagecolor="#ffffff" bordercolor="#666666" borderopacity="1" objecttolerance="10" gridtolerance="10" guidetolerance="10" inkscape:pageopacity="0" inkscape:pageshadow="2" inkscape:window-width="1920" inkscape:window-height="1018" id="namedview19959" showgrid="false" inkscape:zoom="29.5" inkscape:cx="8.12299" inkscape:cy="6.9477155" inkscape:window-x="-8" inkscape:window-y="-8" inkscape:window-maximized="1" inkscape:current-layer="svg19957"/>
  <g transform="matrix(1.03804,0,0,1.04192,-79.790839,-322.20077)" id="g19938" style="stroke:none;fill-opacity:1;fill:url(#linearGradient20532)">
    <path d="m 92.788,312.7 c 0,-1.536 -1.251,-2.782 -2.792,-2.782 h -9.881 c -1.541,0 -2.793,1.246 -2.793,2.782 v 8.433 c 0,1.536 1.252,2.783 2.793,2.783 h 9.881 c 1.541,0 2.792,-1.247 2.792,-2.783 z" style="stroke:none;stroke-width:0.95999998px;fill-opacity:1;fill:url(#linearGradient20532)" id="path19936" inkscape:connector-curvature="0"/>
  </g>
  <g transform="matrix(1.02667,0,0,1.13251,-79.183809,-350.50847)" id="g19942">
    <path d="m 92.322,313.746 c 0,-1.541 -1.381,-2.792 -3.081,-2.792 h -7.626 c -1.7,0 -3.08,1.251 -3.08,2.792 v 5.586 c 0,1.541 1.38,2.792 3.08,2.792 h 7.626 c 1.7,0 3.081,-1.251 3.081,-2.792 z" style="fill:#262626;stroke:#666666;stroke-width:0.79000002px" id="path19940" inkscape:connector-curvature="0"/>
  </g>
  <g transform="matrix(0.925979,0,0,0.991131,-70.581679,-305.75457)" id="g19946">
    <path d="m 92.322,313.042 c 0,-1.153 -1.002,-2.088 -2.236,-2.088 H 80.77 c -1.234,0 -2.235,0.935 -2.235,2.088 v 6.994 c 0,1.153 1.001,2.088 2.235,2.088 h 9.316 c 1.234,0 2.236,-0.935 2.236,-2.088 z" style="fill:#1a1a1a;stroke:#333333;stroke-width:0.88999999px" id="path19944" inkscape:connector-curvature="0"/>
  </g>
  <g id="text9293.-4" transform="matrix(4.00166,0,0,4.00166,5.693,10.639)">
    <path d="M 0.855,-0.49 0.701,-0.929 0.548,-0.49 Z m 0.091,0.261 H 0.457 L 0.378,0 H 0.012 L 0.514,-1.319 H 0.889 L 1.391,0 H 1.025 Z" style="fill:#cccccc;fill-rule:nonzero" id="path19950" inkscape:connector-curvature="0"/>
  </g>
</svg>
